app/dist/common/images/lucapa-diamond-company-ltd.svg

<svg height="18" viewBox="0 0 18 18" width="18" xmlns="http://www.w3.org/2000/svg"><path d="m0 0h18v18h-18z" fill="#f0f3fa"/><path d="m9.5 13h-4.5v-3.73l3.26 1.17z" fill="#015287"/><path d="m5 4v5.46l3.28 1.05z" fill="#7968ae"/><path d="m9.46 4.01h-4.46l.85 1.7z" fill="#baddfd"/><path d="m6.52 7.01-.66-1.31 3.6-1.69 4.54 4.48z" fill="#c0d731"/><path d="m11.75 8.05-5.25-1.06 3 6.01z" fill="#00b1ae"/><path d="m14 8.5-2.26-.46-2.28 4.96h4.54z" fill="#57bcea"/></svg>

<!-- by TradingView --><svg width="18" height="18" viewBox="0 0 18 18" xmlns="http://www.w3.org/2000/svg"><path fill="#F0F3FA" d="M0 0h18v18H0z"/><path d="M9.5 13H5V9.27l3.26 1.17L9.5 13Z" fill="#015287"/><path d="M5 4v5.46l3.28 1.05L5 4Z" fill="#7968AE"/><path d="M9.46 4.01H5l.85 1.7 3.61-1.7Z" fill="#BADDFD"/><path d="M6.52 7.01 5.86 5.7l3.6-1.69L14 8.49 6.52 7.01Z" fill="#C0D731"/><path d="M11.75 8.05 6.5 6.99l3 6.01 2.25-4.95Z" fill="#00B1AE"/><path d="m14 8.5-2.26-.46L9.46 13H14V8.5Z" fill="#57BCEA"/></svg>
